icon-themes/sifr_svg/cmd/lc_sectionshrinktop.svg

<svg viewBox="0 0 24 24" xmlns="http://www.w3.org/2000/svg"><path d="m3 3v2h17v-2zm8 4c-.9 1-1.94303 2.225834-2.71875 3.25-.18125.19768-.28125.45-.28125.75v.6.4h1c.25689 0 .52845-.12983.71875-.3125l1.28125-1.6875v5h2v-5l1.28125 1.6875c.19029.18267.46186.3125.71875.3125h1v-.4-.6c0-.3-.0903-.55232-.28125-.75l-2.71875-3.25z" fill="#555753"/></svg>

<svg xmlns="http://www.w3.org/2000/svg" viewBox="0 0 24 24">
  <path
     style="fill:#555753"
     d="M 3 3 L 3 5 L 20 5 L 20 3 L 3 3 z M 11 7 C 10.1 8 9.05697 9.225834 8.28125 10.25 C 8.1 10.44768 8 10.7 8 11 L 8 11.6 L 8 12 L 9 12 C 9.25689 12 9.52845 11.87017 9.71875 11.6875 L 11 10 L 11 15 L 13 15 L 13 10 L 14.28125 11.6875 C 14.47154 11.87017 14.74311 12 15 12 L 16 12 L 16 11.6 L 16 11 C 16 10.7 15.9097 10.44768 15.71875 10.25 L 13 7 L 11 7 z "
     />
</svg>
